X: 126
T: Tripping Up Stairs
C:trad Ireland
Z:Laurie Griffiths (distribute freely)
L:1/8
M:6/8
K:D
V:1
|:  "D"FAA "G"GBB |  "D"Ade fed | "A"cBc ABc | "D"dfe "A7"dAG \
 |  "D"FAA "G"GBB |  "D"Ade fed | "A"cBc ABc | "D"dfe d3 :|
|: "Bm"dBB    fBB | "Bm"dBB fed | "A"cAA eAA | "A"cAc edc \
 | "Bm"dBB    fBB | "Bm"dBd fed | "A"cBc ABc | "D"dfe d3 :|

%%sep 1 1 500

